X:164
T:Miss Poultney's Delight
M:6/8
L:1/8
B:Thompson's Compleat Collection of 200 Favourite Country Dances, vol. 3 (London, 1773)
Z:Transcribed and edited by Flynn Titford-Mock, 2007
Z:abc's:AK/Fiddler's Companion
K:G
B/c/ | dGBG | F(A A)B/c/ | dGBG | B/c/d/c/ BG | c/d/e/c/ A/B/c/A/ | F(A A)B/c/ | dg A/B/c/A/ | B(G G) :|
|: g/f/ | gd g/a/b/a/ | g(d d)c/B/ | c/d/e/c/ A/B/c/A/ | F(A A)B/c/ | de/f/ gf/g/ | a/g/f/e/ d/c/B/A/ | Bg A/B/c/A/ | B(G G) :|

